!!!COM: Scriabin, Alexander
!!!CDT: 1872///-1915///
!!!OTL: Prelude Op. 59, No. 2
!!!OPR: Two Pieces, Op. 59
!!!OMD: Sauvage, belliqueux
!!!OPS: Op. 59
!!!ONM: No. 2
!!!OCY: Russia
!!!ODT: 1910///
**kern	**kern	**dynam
*staff2	*staff1	*staff1/2
*clefF4	*clefG2	*clefG2
*k[]	*k[]	*k[]
*M6/8	*M6/8	*M6/8
(16AAA/ 16AA/LL	4.G/ 4.c/ 4.f#/	p
16EEE-/) 16EE-/JJ	.	.
8r	.	.
8r	.	.
=1	=1	=1
*	*^	*
(16CC/ 16C/LL	8B-/ 8e-/	4.r	.
16GGG/) 16GG/JJ	.	.	.
8E-^\ 8B-^\ 8e-^\	4d^/ 4dd^/	.	.
8r	.	.	.
(16AAA/ 16AA/LL	(4.G/ 4.f#/	8c\L	.
16EEE-/) 16EE-/JJ	.	.	.
8r	.	8c#\	.
8r	.	8cn\J	.
=2	=2	=2	=2
(16CC/ 16C/LL	4e-/	8B\L	.
16GGG/) 16GG/JJ	.	.	.
8r	.	8B-\J)	.
[8E-^\ [8B-^\ [8e-^\	[8d^/ [8dd^/	8r	.
8E-\] 8B-\] 8e-\]	8d/] 8dd/L]	4.r	.
8r	8b-/	.	.
8r	8a/J	.	.
=3	=3	=3	=3
4r	20.dd/L	4.r	.
.	20.b-/	.	.
.	20.a/	.	.
.	20.f#/	.	.
8r	.	.	.
.	20.e-/J	.	.
(16AAA/ 16AA/LL	(4.G/ 4.f#/	8c\L	<
16EEE-/) 16EE-/JJ	.	.	.
8r	.	8c#\	.
8r	.	8cn\J	.
=4	=4	=4	=4
(16CC/ 16C/LL	4e-/	8B\L	.
16GGG/) 16GG/JJ	.	.	.
8r	.	8B-\J)	.
[8E-^\ [8B-^\ [8e-^\	[8d^/ (8dd^/	8r	.
8E-\] 8B-\] 8e-\]	8d/] 8dd/L	4.r	.
8r	8b-/	.	.
8r	8a/J	.	.
=5	=5	=5	=5
4r	16.dd/L	4.r	.
.	16.b-/	.	.
.	16.a/	.	.
8r	.	.	.
.	16.f#/J)	.	.
(16CC/ 16C/LL	(4.B-/ 4.a/	8e-\L	.
16GGG-/) 16GG-/JJ	.	.	.
8r	.	8en\	.
8r	.	8e-\J	.
=6	=6	=6	=6
(16EE-/ 16E-/LL	4g-/	8d\L	.
16BBB-/) 16BB-/JJ	.	.	.
8r	.	8d-\J)	.
[8G-^\ [8d-^\ [8g-^\	[8f^/ ([8ff^/	8r	.
8G-\] 8d-\] 8g-\]	8f/] 8ff/L]	4.r	.
8r	8dd-/	.	.
8r	8cc/J	.	.
*	*v	*v	*
=7	=7	=7
4r	16.ff/L	.
.	16.dd-/	.
.	16.cc/	.
8r	.	.
.	16.a/J)	.
(16DD#/ 16D#/LL	4.c#/ 4.f#/ 4.b#/	.
16AAA/) 16AA/JJ	.	.
8r	.	.
8r	.	.
=8	=8	=8
*	*^	*
16BBB#/ 16BB#/LL	8A/ 8e/ 8a/	4.r	.
16FFF#/ 16FF#/JJ	.	.	.
4A^\ 4e^\ 4a^\	4g#^/ 4gg#^/	.	.
(16DD#/ 16D#/LL	(4.c#/ 4.b#/	8f#\L	.
16AAA/) 16AA/JJ	.	.	.
8r	.	8f##\	.
8r	.	8f#\J	.
=9	=9	=9	=9
16BBB#/ 16BB#/LL	4A/ 4a/	8e#\L	.
16FFF/ 16FF#/JJ	.	.	.
8r	.	8en\J)	.
8A^\ 8e^\ 8a^\	8g#^/ 8gg#^/	8r	.
(16DD#/ 16D#/LL	4.c#/ 4.b#/	8f#\L	.
16AAA/) 16AA/JJ	.	.	.
8r	.	8f##\	.
8r	.	8f#\J	.
=10	=10	=10	=10
16BBB#/ 16BB#/LL	4A/ 4a/	8e#\L	.
16FFF/ 16FF#/JJ	.	.	.
8r	.	8en\J	.
8A^\ 8e^\ 8a^\	8g#^/ 8gg#^/	8r	.
(16BBB#/ 16BB#/LL	4A/ 4a/	(8e#\L	.
16FFF/) 16FF#/JJ	.	.	.
8r	.	8en\J)	.
8A^\ 8e^\ 8a^\	8g#^/ 8gg#^/	8r	.
*	*v	*v	*
=11	=11	=11
8r	8r	.
8r	8r	.
8A^\ 8e^\ 8a^\	8g#^/ 8b#^/ 8gg#^/	p
8A^/ 8e^/ 8a^/L	8g#^/ 8b#^/ 8gg#^/L	<
8BBB#^/ 8BB#^/	8g#^/ 8b#^/ 8gg#^/	.
8FFF#^/ 8FF#^/J	8g#^/ 8b#^/ 8gg#^/J	.
=12	=12	=12
*	*^	*
4.A^\ 4.e^\ 4.a^\	8gg#^/L	4.g#\ 4.b#\	f
.	8.ee^/	.	.
.	16dd#^/Jk	.	.
[4.A^\ [4.e^\ [4.a^\	[4.gg#^/	[4.g#\ [4.b#\	.
=13	=13	=13	=13
4.A\] 4.e\] 4.a\]	4gg#/]	4.g#\] 4.b#\]	.
.	8ee^/	.	.
8r	8dd#^/L	4r	.
8FFF#^/ 8FF#^/L	8b#^/	.	.
8CCC#^/ 8CC#^/J	8a^/J	8r	.
*	*v	*v	*
=14	=14	=14
4.E\ 4.A\	4.B#^/ 4.e^/ 4.a^/ 4.b#^/	.
4r	(16E/LL	.
.	16A/	.
.	16B#/	.
.	16e/	.
8r	16g#/	.
.	16a/JJ	.
=15	=15	=15
4r	16b#/LL	.
.	16a/	.
.	16g#/	.
.	16e/	.
8r	16B#/	.
.	16A/JJ	.
8r	8E/)	.
8BBB#^/ 8BB#^/L	8r	.
8FFF#^/ 8FF#^/J	8r	.
=16	=16	=16
*	*^	*
4.A^\ 4.e^\ 4.a^\	8gg#/L	4.g#\ 4.b#\	.
.	8.ee/	.	.
.	16dd#/Jk	.	.
[4.A^\ [4.e^\ [4.a^\	[4.gg#^/	([4.g#\ [4.b#\	.
=17	=17	=17	=17
4.A\] 4.e\] 4.a\]	4gg#/]	4.g#\]) 4.b]\	.
.	8ee^/	.	.
8r	8dd#^/L	4r	.
8FFF#^/ 8FF#^/L	8b#^/	.	.
8CCC#^/ 8CC#^/J	8a^/J	8r	.
*	*v	*v	*
=18	=18	=18
4.E^\ 4.A^\	4.B#^/ 4.e^/ 4.a^/ 4.b#^/	.
4r	(16E/LL	.
.	16A/	.
.	16B#/	.
.	16e/	.
8r	16g#/	.
.	16a/JJ	.
=19	=19	=19
4r	16b#/LL	.
.	16a/	.
.	16g#/	.
.	16e/	.
8r	16B#/	.
.	16A/JJ	.
8r	8E/)	.
8FFF##^/ 8FF##^/L	8r	.
8CCC#^/ 8CC#^/J	8r	.
=20	=20	=20
*	*^	*
4.E\ 4.B\ 4.e\	8dd#^/L	4.d#\ 4.f##\	.
.	8b/	.	.
.	16r	.	.
.	16a#/Jk	.	.
[4.E\ [4.B\ [4.e\	[4.dd#^/	[4.d#\ [4.f##\	.
=21	=21	=21	=21
4.E\] 4.B\] 4.e\]	4dd#/]	4.d#\] 4.f##\]	.
.	8b^/	.	.
8r	8a#^/L	4r	.
8CC#^/ 8C#^/L	8f##^/	.	.
8GGG#^/ 8GG#^/J	8e^/J	8r	.
*	*v	*v	*
=22	=22	=22
4BB^/ 4E^/	8F##^/ 8B^/ 8e^/ 8f##^/	.
.	(16F##/LL	.
.	16B/	.
8r	16d#/	.
.	16e/JJ	.
8r	16f##/LL	.
.	16e/	.
8CC#^/ 8C#^/L	16d#/	.
.	16B/JJ	.
8GGG#^/ 8GG#^/J	8F##/)	.
=23	=23	=23
4BB^/ 4E^/	8F##^/ 8B^/ 8e^/ 8f##^/	.
.	(16F##/LL	.
.	16B/	.
8r	16d#/	.
.	16e/JJ	.
8r	16f##/LL	.
.	16e/	.
8CC#^/ 8C#^/L	16d#/	.
.	16B/JJ	.
8GGG#^/ 8GG#^/J	8F##/)	.
=24	=24	=24
4BB^/ 4E#^/	8F##^/ 8B^/ 8e#^/ 8f##^/	.
.	(16F##/LL	.
.	16B/	.
8r	16d#/	.
.	16e#/JJ	.
8r	16f##/LL	.
.	16e#/	.
8CC#/ 8C#/L	16d#/	.
.	16B/JJ	.
8GGGn/ 8GGn/J	8F##/)	.
=25	=25	=25
4BB^\ 4F^\	8A-^/ 8B^/ 8f^/ 8a-^/	.
.	(16A-/LL	.
.	16B/	.
8r	16e/	.
.	16f/JJ	.
8r	16a-/LL	.
.	16f/	.
8BBB#/ 8BB#/L	16e/	.
.	16A#/JJ	.
8FFF#/ 8FF#/J	8G#/)	.
=26	=26	=26
4.E\ 4.A#\	4.e/ 4.g#/ 4.b#/	.
(16DD#/ 16D#/LL	4.c#/ 4.f#/ 4.b#/	p
16AAA/) 16AA/JJ	.	.
8r	.	.
8r	.	.
=27	=27	=27
(16DD#/ 16D#/LL	4.c#/ 4.f#/ 4.b#/	.
16AAA/) 16AA/JJ	.	.
8r	.	.
8r	.	.
(16DD#/ 16D#/LL	4.c#/ 4.f#/ 4.b#/	.
16AAA/) 16AA/JJ	.	.
8r	.	.
8r	.	.
=28	=28	=28
4r	4r	.
8r	8r	.
(16DD#/ 16D#/LL	4.c/ 4.f#/ 4.b#/	mp
16AAA/) 16AA/JJ	.	.
8r	.	.
8r	.	.
=29	=29	=29
*	*^	*
16FF#/ 16F#/LL	8e/ 8a/	4.r	.
16CC#/ 16C#/JJ	.	.	.
4A^\ 4e^\ 4a^\	4g#^/ 4gg#^/	.	.
(16DD#/ 16D#/LL	(4.c#/ 4.b#/	8f#\L	.
16AAA/) 16AA/JJ	.	.	.
8r	.	8f##\	.
8r	.	8f#\J	.
=30	=30	=30	=30
(16FF#/ 16F#/LL	4A/ 4a/	8e#\L	.
16CC#/) 16C#/JJ	.	.	.
8r	.	8en\J)	.
[8A^\ (8e^\ [8a^\	[8g#^/ ([8gg#^/	8r	.
8A\] 8e\ 8a\])	8g#/] 8gg#/L]	4.r	.
8r	8ee/	.	.
8r	8dd#/J	.	.
=31	=31	=31	=31
4r	20.gg#/L	4.r	.
.	20.ee/	.	.
.	20.dd#/	.	.
.	20.b#/	.	.
8r	.	.	.
.	20.a/J)	.	<
(16DD#/ 16D#/LL	(4.c#/ 4.b#/	8f#\L	.
16AAA/) 16AA/JJ	.	.	.
8r	.	8f##\	.
8r	.	8f#\J	.
=32	=32	=32	=32
16FF#/ 16F#/LL	4A/ 4a/	8e#\L	.
16CC/ 16C#/JJ	.	.	.
8r	.	8en\J)	.
[8A^\ [8e^\ [8a^\	[8g#^/ [8gg#^/	8r	.
8A\] 8e\] 8a\]	8g#/] 8gg#/L]	4.r	.
8r	8ee/	.	.
8r	8dd#/J	.	.
=33	=33	=33	=33
4r	16.gg#/L	4.r	.
.	16.ee/	.	.
.	16.dd#/	.	.
8r	.	.	.
.	16.b#/J	.	.
16FF#/ 16F#/LL	(4.e/ 4.dd#/	8a\L	.
16CCn/ 16Cn/JJ	.	.	.
8r	.	8a#\	.
8r	.	8an\J	.
=34	=34	=34	=34
(16AA/ 16A/LL	4c/ 4cc/	8g#\L	.
16EE/) 16E/JJ	.	.	.
8r	.	8gn\J)	.
[8c^\ [8g^\ [8cc^\	[8b^/ ([8bb^/	8r	.
8c\] 8g\] 8cc\]	8b/] 8bb/L]	4.r	.
8r	8gg/	.	.
8r	8ff#/J	.	.
*	*v	*v	*
=35	=35	=35
4r	16.b/ 16.bb/L	.
.	16.gg/	.
.	16.ff#/	.
8r	.	.
.	16.dd#/J)	.
(16AA/ 16A/LL	4g/ 4cc/ 4ff#/	.
16EE-/) 16E-/JJ	.	.
8r	.	.
8r	8r	.
=36	=36	=36
*	*^	*
(16FF#/ 16F#/LL	8e-/ 8b-/ 8ee-/	4.r	.
16CC/) 16C/JJ	.	.	.
8B-^\ 8e-^\ 8b-^\	4dd^/ 4ddd^/	.	.
8r	.	.	.
(16AA/ 16A/LL	(4.g/ 4.ff#/	8cc\L	.
16EE-/) 16E-/JJ	.	.	.
8r	.	8cc#\	.
8r	.	8ccn\J	.
=37	=37	=37	=37
(16FF#/ 16F#/LL	4e-/ 4ee-/	8b\L	.
16CC/) 16C/JJ	.	.	.
8r	.	8b-\J)	.
8B-^\ 8e-^\ 8b-^\	8dd^/ 8ddd^/	8r	.
(16AA/ 16A/LL	(4.g/ 4.ff#/	8cc\L	.
16EE-/) 16E-/JJ	.	.	.
8r	.	8cc#\	.
8r	.	8ccn\J	.
=38	=38	=38	=38
(16FF#/ 16F#/LL	4e-/ 4ee-/	8b\L	.
16CC/) 16C/JJ	.	.	.
8r	.	8b-\J)	.
8B-^\ 8e-^\ 8b-^\	8dd^/ 8ddd^/	8r	.
(16FF#/ 16F#/LL	4e-/ 4ee-/	(8bn\L	.
16CC/) 16C/JJ	.	.	.
8r	.	8b-\J)	.
8B-^\ 8e-^\ 8b-^\	8dd^/ 8ddd^/	8r	.
*	*v	*v	*
=39	=39	=39
8r	8r	.
8r	8r	.
8B-^\ 8e-^\ 8b-^\	8dd^/ 8ff#^/ 8ddd^/	p
8B-^\ 8e-^\ 8b-^\L	8dd^/ 8ff#^/ 8ddd^/L	<
8FF#^\ 8F#^\	8dd^/ 8ff#^/ 8ddd^/	.
8CC^\ 8C^\J	8dd^/ 8ff#^/ 8ddd^/J	.
=40	=40	=40
*	*^	*
4.B-^\ 4.e-^\ 4.b-^\	8dd^/ 8ddd^/L	4.ff#\	f
.	8b-/ 8bb-/	.	.
.	8a/ 8aa/J	.	.
[4.B-^\ [4.e-^\ [4.b-^\	[4.dd^/ [4.ddd^/	[4.ff#\	.
=41	=41	=41	=41
4B-\] 4e-\] 4b-\]	4dd/] 4ddd/]	4ff#\]	.
8r	8b-^/ 8bb-^/	8r	.
8r	8a^/ 8aa^/L	4.r	.
8CC^/ 8C^/L	8f#^/ 8ff#^/	.	.
8GGG^/ 8GG^/J	8e-^/ 8ee-^/J	.	.
*	*v	*v	*
=42	=42	=42
4.E-^\ 4.B-^\ 4.e-^\	4.f#^/ 4.b-^/ 4.ee-^/ 4.ff#^/	.
4r	(16B-/LL	.
.	16e-/	.
.	16f#/	.
.	16b-/	.
8r	16dd/	.
.	16ee-/JJ	.
=43	=43	=43
4r	16ff#/LL	.
.	16ee-/	.
.	16dd/	.
.	16b-/	.
8r	16f#/	.
.	16e-/JJ	.
8r	8B-/)	.
8FF#^/ 8F#^/L	8r	.
8CC^/ 8C^/J	8r	.
=44	=44	=44
*	*^	*
4.B-^\ 4.e-^\ 4.b-^\	8dd^/ 8ddd^/L	4.ff#\	.
.	8.b-/ 8.bb-/	.	.
.	16a/ 16aa/Jk	.	.
[4.B-^\ [4.e-^\ [4.b-^\	[4.dd^/ [4.ddd^/	[4.ff#\	.
=45	=45	=45	=45
4B-\] 4e-\] 4b-\]	4dd/] 4ddd/]	4ff#\]	.
8r	8b-^/ 8bb-^/	8r	.
8r	8a^/ 8aa^/L	4.r	.
8CC^/ 8C^/L	8f#^/ 8ff#^/	.	.
8GGG^/ 8GG^/J	8e-^/ 8ee-^/J	.	.
*	*v	*v	*
=46	=46	=46
4.E-^\ 4.B-^\ 4.e-^\	4.f#^/ 4.b-^/ 4.ee-^/ 4.ff#^/	.
4r	(16B-/LL	.
.	16e-/	.
.	16f#/	.
.	16b-/	.
8r	16dd/	.
.	16ee-/JJ	.
=47	=47	=47
4r	16ff#/LL	.
.	16ee-/	.
.	16dd/	.
.	16b-/	.
8r	16f#/	.
.	16e-/JJ	.
8r	8B-/)	.
8CC#^/ 8C#^/L	8r	.
8GGG^/ 8GG^/J	8r	.
=48	=48	=48
*	*^	*
4.F^\ 4.B-^\ 4.f^\	8a^/ 8aa^/L	4.cc#\	.
.	8.f/ 8.ff/	.	.
.	16e/ 16ee/Jk	.	.
[4.F^\ [4.B-^\ [4.f^\	[4.a^/ [4.aa^/	[4.cc#\	.
=49	=49	=49	=49
4F\] 4B-\] 4f\]	4a/] 4aa/]	4cc#\]	.
8r	8f^/ 8ff^/	8r	.
8r	8e^/ 8ee^/L	4.r	.
8GGG^/ 8GG^/L	8c#^/ 8cc#^/	.	.
8DDD^/ 8DD^/J	8B-^/ 8b-^/J	.	.
*	*v	*v	*
=50	=50	=50
8BB-^\ 8F-^\ 8B-^\	8c#^/ 8f^/ 8b-^/ 8cc#^/	.
8r	(16c#/LL	.
.	16f/	.
8r	16a/	.
.	16b-/JJ	.
8r	16cc#/LL	.
.	16b-/	.
8GGG^/ 8GG^/L	16a/	.
.	16f/JJ	.
8DDD^/ 8DD^/J	8c#/)	.
=51	=51	=51
8BB-^\ 8F^\ 8B-^\	8c#^/ 8f^/ 8b-^/ 8cc#^/	.
8r	(16c#/LL	.
.	16f/	.
8r	16a/	.
.	16b-/JJ	.
8r	16cc#/LL	.
.	16b-/	.
8GGG/ 8GG/L	16a/	.
.	16f/JJ	.
8DDD/ 8DD/J	8c#/)	.
=52	=52	=52
8BBn^\ 8F^\ 8Bn^\	8c#^/ 8f^/ 8bn^/ 8cc#^/	.
8r	(16c#/LL	.
.	16f/	.
8r	16a/	.
.	16b/JJ	.
8r	16cc#/LL	.
.	16b/	.
8FFF##/ 8FF##/L	16a/	.
.	16f/JJ	.
8CCC#/ 8CC#/J	8c#/)	.
=53	=53	=53
8BB^\ 8E#^\ 8B^\	8d^/ 8e#^/ 8b^/ 8dd^/	.
8r	(16d/LL	.
.	16e#/	.
8r	16a#/	.
.	16b/JJ	.
8r	16dd/LL	.
.	16b/	.
8FFF#/ 8FF#/L	16a#/	.
.	16en/JJ	.
8CCCn/ 8CCn/J	8d/)	.
=54	=54	=54
8BB-^\ 8E^\ 8B-^\	4.d^/ 4.e^/ 4.b-^/ 4.dd^/	.
8r	.	.
8r	.	.
16CC/ 16C/LL	4.B-/ 4.e/ 4.a/	.
16FFF#/ 16FF#/JJ	.	.
8r	.	.
8r	.	.
=55	=55	=55
16CC/ 16C/LL	4.B-/ 4.e/ 4.a/	.
16FFF#/ 16FF#/JJ	.	.
8r	.	.
8r	.	.
8r	4.B-/ 4.e/ 4.a/	.
8FFF#/ 8FF#/L	.	.
8CCC/ 8CC/J	.	.
=56	=56	=56
8BB-^\ 8E^\ 8B-^\	4.d^/ 4.e^/ 4.b-^/ 4.dd^/	.
8r	.	.
8r	.	.
16CC/ 16C/LL	4.B-/ 4.e/ 4.a/	.
16FFF#/ 16FF#/JJ	.	.
8r	.	.
8r	.	.
=57	=57	=57
16CC/ 16C/LL	4.B-/ 4.e/ 4.a/	.
16FFF#/ 16FF#/JJ	.	.
8r	.	.
8r	.	.
8r	4.B-/ 4.e/ 4.a/	.
8FFF#/ 8FF#/L	.	.
8CCC/ 8CC/J	.	.
=58	=58	=58
*	*^	*
4.BB-^\ 4.E^\ 4.B-^\	8dd^/L	4.d\ 4.e\	.
.	8.b-/	.	.
.	16a/Jk	.	.
[4.BB-^\ [4.E^\ [4.B-^\	[4.dd^/	[4.d\ [4.e\	.
=59	=59	=59	=59
4BB-\] 4E\] 4B-\]	4dd^/]	4.d\] 4.e\]	.
8r	8b-^/	.	.
4r	4a^/	4.r	.
8r	16r	.	.
.	16f#^/	.	.
*	*v	*v	*
=60	=60	=60
(CCCq/ CCq/	.	.
[2.CCC/) [2.CC/ [2.BB-/ [2.E/ [2.B-/	[2.d-^/ [2.e^/ [2.a^/	.
=61	=61	=61
2.CCC/] 2.CC/] 2.BB-/] 2.E/] 2.B-/]	2.d-/] 2.e/] 2.a/]	.
==	==	==
*-	*-	*-
!!!ENC: Craig Stuart Sapp
!!!END: 2004/12/07/
